neoactive/svg/Uzebox.svg

<?xml version="1.0" encoding="UTF-8" standalone="no"?>
<svg
   xmlns:dc="http://purl.org/dc/elements/1.1/"
   xmlns:cc="http://creativecommons.org/ns#"
   xmlns:rdf="http://www.w3.org/1999/02/22-rdf-syntax-ns#"
   xmlns:svg="http://www.w3.org/2000/svg"
   xmlns="http://www.w3.org/2000/svg"
   viewBox="0 0 320 320"
   height="320"
   width="320"
   xml:space="preserve"
   version="1.1"
   id="svg2"><metadata
     id="metadata8"><rdf:RDF><cc:Work
         rdf:about=""><dc:format>image/svg+xml</dc:format><dc:type
           rdf:resource="http://purl.org/dc/dcmitype/StillImage" /></cc:Work></rdf:RDF></metadata><defs
     id="defs6"><clipPath
       id="clipPath16"
       clipPathUnits="userSpaceOnUse"><path
         id="path18"
         d="m 16,220 c -2.209,0 -4,-1.79 -4,-4 l 0,0 0,-176 c 0,-2.209 1.791,-4 4,-4 l 0,0 224,0 c 2.209,0 4,1.791 4,4 l 0,0 0,176 c 0,2.21 -1.791,4 -4,4 l 0,0 -224,0 z" /></clipPath><linearGradient
       id="linearGradient24"
       spreadMethod="pad"
       gradientTransform="matrix(205.65685,-205.65685,-205.65685,-205.65685,25.171574,230.82843)"
       gradientUnits="userSpaceOnUse"
       y2="0"
       x2="1"
       y1="0"
       x1="0"><stop
         id="stop26"
         offset="0"
         style="stop-opacity:1;stop-color:#e6e7e8" /><stop
         id="stop28"
         offset="1"
         style="stop-opacity:1;stop-color:#d1d3d4" /></linearGradient><clipPath
       id="clipPath36"
       clipPathUnits="userSpaceOnUse"><path
         id="path38"
         d="M 0,256 256,256 256,0 0,0 0,256 Z" /></clipPath></defs><g
     transform="matrix(1.25,0,0,-1.25,0,320)"
     id="g10"><g
       id="g12"><g
         clip-path="url(#clipPath16)"
         id="g14"><g
           id="g20"><g
             id="g22"><path
               id="path30"
               style="fill:url(#linearGradient24);stroke:none"
               d="m 16,220 c -2.209,0 -4,-1.79 -4,-4 l 0,0 0,-176 c 0,-2.209 1.791,-4 4,-4 l 0,0 224,0 c 2.209,0 4,1.791 4,4 l 0,0 0,176 c 0,2.21 -1.791,4 -4,4 l 0,0 -224,0 z" /></g></g></g></g><g
       id="g32"><g
         clip-path="url(#clipPath36)"
         id="g34"><path
           id="path40"
           style="fill:#999999;fill-opacity:1;fill-rule:nonzero;stroke:none"
           d="m 244,200 -232,0 0,4 232,0 0,-4 z" /><path
           id="path42"
           style="fill:#999999;fill-opacity:1;fill-rule:nonzero;stroke:none"
           d="m 244,192 -232,0 0,4 232,0 0,-4 z" /><path
           id="path44"
           style="fill:#999999;fill-opacity:1;fill-rule:nonzero;stroke:none"
           d="m 244,184 -232,0 0,4 232,0 0,-4 z" /><path
           id="path46"
           style="fill:#999999;fill-opacity:1;fill-rule:nonzero;stroke:none"
           d="m 244,176 -232,0 0,4 232,0 0,-4 z" /><path
           id="path48"
           style="fill:#999999;fill-opacity:1;fill-rule:nonzero;stroke:none"
           d="m 244,168 -232,0 0,4 232,0 0,-4 z" /><path
           id="path50"
           style="fill:#999999;fill-opacity:1;fill-rule:nonzero;stroke:none"
           d="m 244,160 -232,0 0,4 232,0 0,-4 z" /><path
           id="path52"
           style="fill:#999999;fill-opacity:1;fill-rule:nonzero;stroke:none"
           d="m 244,152 -232,0 0,4 232,0 0,-4 z" /><path
           id="path54"
           style="fill:#999999;fill-opacity:1;fill-rule:nonzero;stroke:none"
           d="m 244,144 -232,0 0,4 232,0 0,-4 z" /><path
           id="path56"
           style="fill:#999999;fill-opacity:1;fill-rule:nonzero;stroke:none"
           d="m 244,136 -232,0 0,4 232,0 0,-4 z" /><path
           id="path58"
           style="fill:#999999;fill-opacity:1;fill-rule:nonzero;stroke:none"
           d="m 244,128 -232,0 0,4 232,0 0,-4 z" /><path
           id="path60"
           style="fill:#ffffff;fill-opacity:1;fill-rule:nonzero;stroke:none"
           d="m 88,72 -40,0 0,20 40,0 0,-20 z" /><path
           id="path62"
           style="fill:#ffffff;fill-opacity:1;fill-rule:nonzero;stroke:none"
           d="m 204,72 -40,0 0,20 40,0 0,-20 z" /><g
           transform="translate(164,70)"
           id="g64"><path
             id="path66"
             style="fill:#999999;fill-opacity:1;fill-rule:nonzero;stroke:none"
             d="m 0,0 -2,0 0,2 0,20 0,2 2,0 12,0 0,126 -96,0 0,-126 8,0 2,0 0,-2 0,-20 0,-2 -2,0 -8,0 0,-34 96,0 0,34 -12,0 z" /></g></g></g></g></svg>

<?xml version="1.0" encoding="UTF-8" standalone="no"?>
<svg
   xmlns:dc="http://purl.org/dc/elements/1.1/"
   xmlns:cc="http://creativecommons.org/ns#"
   xmlns:rdf="http://www.w3.org/1999/02/22-rdf-syntax-ns#"
   xmlns:svg="http://www.w3.org/2000/svg"
   xmlns="http://www.w3.org/2000/svg"
   viewBox="0 0 341.33334 341.33334"
   height="256"
   width="256"
   xml:space="preserve"
   id="svg2"
   version="1.1"><metadata
     id="metadata8"><rdf:RDF><cc:Work
         rdf:about=""><dc:format>image/svg+xml</dc:format><dc:type
           rdf:resource="http://purl.org/dc/dcmitype/StillImage" /></cc:Work></rdf:RDF></metadata><defs
     id="defs6"><clipPath
       id="clipPath18"
       clipPathUnits="userSpaceOnUse"><path
         id="path16"
         d="m 16,220 c -2.209,0 -4,-1.79 -4,-4 v 0 -176 c 0,-2.209 1.791,-4 4,-4 v 0 h 224 c 2.209,0 4,1.791 4,4 v 0 176 c 0,2.21 -1.791,4 -4,4 v 0 z" /></clipPath><linearGradient
       id="linearGradient28"
       spreadMethod="pad"
       gradientTransform="matrix(205.65685,-205.65685,-205.65685,-205.65685,25.171574,230.82843)"
       gradientUnits="userSpaceOnUse"
       y2="0"
       x2="1"
       y1="0"
       x1="0"><stop
         id="stop24"
         offset="0"
         style="stop-opacity:1;stop-color:#e6e7e8" /><stop
         id="stop26"
         offset="1"
         style="stop-opacity:1;stop-color:#d1d3d4" /></linearGradient><clipPath
       id="clipPath38"
       clipPathUnits="userSpaceOnUse"><path
         id="path36"
         d="M 0,256 H 256 V 0 H 0 Z" /></clipPath></defs><g
     transform="matrix(1.3333333,0,0,-1.3333333,0,341.33333)"
     id="g10"><g
       id="g12"><g
         clip-path="url(#clipPath18)"
         id="g14"><g
           id="g20"><g
             id="g22"><path
               id="path30"
               style="fill:url(#linearGradient28);stroke:none"
               d="m 16,220 c -2.209,0 -4,-1.79 -4,-4 v 0 -176 c 0,-2.209 1.791,-4 4,-4 v 0 h 224 c 2.209,0 4,1.791 4,4 v 0 176 c 0,2.21 -1.791,4 -4,4 v 0 z" /></g></g></g></g><g
       id="g32"><g
         clip-path="url(#clipPath38)"
         id="g34"><path
           id="path40"
           style="fill:#999999;fill-opacity:1;fill-rule:nonzero;stroke:none"
           d="M 244,200 H 12 v 4 h 232 z" /><path
           id="path42"
           style="fill:#999999;fill-opacity:1;fill-rule:nonzero;stroke:none"
           d="M 244,192 H 12 v 4 h 232 z" /><path
           id="path44"
           style="fill:#999999;fill-opacity:1;fill-rule:nonzero;stroke:none"
           d="M 244,184 H 12 v 4 h 232 z" /><path
           id="path46"
           style="fill:#999999;fill-opacity:1;fill-rule:nonzero;stroke:none"
           d="M 244,176 H 12 v 4 h 232 z" /><path
           id="path48"
           style="fill:#999999;fill-opacity:1;fill-rule:nonzero;stroke:none"
           d="M 244,168 H 12 v 4 h 232 z" /><path
           id="path50"
           style="fill:#999999;fill-opacity:1;fill-rule:nonzero;stroke:none"
           d="M 244,160 H 12 v 4 h 232 z" /><path
           id="path52"
           style="fill:#999999;fill-opacity:1;fill-rule:nonzero;stroke:none"
           d="M 244,152 H 12 v 4 h 232 z" /><path
           id="path54"
           style="fill:#999999;fill-opacity:1;fill-rule:nonzero;stroke:none"
           d="M 244,144 H 12 v 4 h 232 z" /><path
           id="path56"
           style="fill:#999999;fill-opacity:1;fill-rule:nonzero;stroke:none"
           d="M 244,136 H 12 v 4 h 232 z" /><path
           id="path58"
           style="fill:#999999;fill-opacity:1;fill-rule:nonzero;stroke:none"
           d="M 244,128 H 12 v 4 h 232 z" /><path
           id="path60"
           style="fill:#ffffff;fill-opacity:1;fill-rule:nonzero;stroke:none"
           d="M 88,72 H 48 v 20 h 40 z" /><path
           id="path62"
           style="fill:#ffffff;fill-opacity:1;fill-rule:nonzero;stroke:none"
           d="m 204,72 h -40 v 20 h 40 z" /><g
           transform="translate(164,70)"
           id="g64"><path
             id="path66"
             style="fill:#999999;fill-opacity:1;fill-rule:nonzero;stroke:none"
             d="m 0,0 h -2 v 2 20 2 H 0 12 V 150 H -84 V 24 h 8 2 V 22 2 0 h -2 -8 V -34 H 12 V 0 Z" /></g></g></g></g></svg>
